X:184
T:Mirth and Jollity
M:6/8
L:1/8
B:Thompson's Compleat Collection of 200 Favourite Country Dances, vol. 1 (London, 1757)
Z:Transcribed and edited by Flynn Titford-Mock, 2007
Z:abc's:AK/Fiddler's Companion
K:Bb
BcB F2E|D2F B3|Bcd cdB|ABG F3|BcB F2E|D2F B2|Bcd cdB|f3 F3:|
|:ded ded|e2c cde|ded cdB|ABG F3|ded ded|efg f2e|dcB FBA|B3 B,3:|

